X:105
T:The Fireplace Reel
M:4/4
L:1/8
K:GMix
d2 de dBGB|AFBF AFcF|d2 de dBGB|cBAc BG G2|
d2 de dBGB|AFcF AFAc|d2 de dBGB|cBAc BG G2 ||
|:b3 a g3 e|fefg afdf|bga^f g=fdB|cBAc BG G2 :|
